X:28
T:An Ch\'oisir
T:House Party, The
R:slide
H:See also #36
D:Begley & Cooney: Meitheal
Z:id:hn-slide-28
M:6/8
K:Em
B,2E EDE|G2A B3|ABA ABA|F2A d3|
B,2E EDE|G2A B3|A2G E2D|1 E3 E2D:|2 E2F G2A||
B3 ABA|G2A F3|~E3 GFE|DB,A, B,2A,|
B,2E EDE|G2A B3|A2G E2D|1 E2F G2A:|2 E3 E2D||
<end>
<start>
